2-ui/1-document/09-size-and-scroll/metric-offset-width-height.svg

<?xml version="1.0" encoding="UTF-8"?>
<svg width="508px" height="509px" viewBox="0 0 508 509" version="1.1" xmlns="http://www.w3.org/2000/svg" xmlns:xlink="http://www.w3.org/1999/xlink">
    <!-- Generator: sketchtool 61.2 (101010) - https://sketch.com -->
    <title>metric-offset-width-height.svg</title>
    <desc>Created with sketchtool.</desc>
    <defs>
        <linearGradient x1="50%" y1="0%" x2="50%" y2="100%" id="linearGradient-1">
            <stop stop-color="#FFFFFF" offset="0%"></stop>
            <stop stop-color="#F1F1F1" offset="100%"></stop>
        </linearGradient>
        <linearGradient x1="50%" y1="0%" x2="50%" y2="100%" id="linearGradient-2">
            <stop stop-color="#FFFFFF" offset="0%"></stop>
            <stop stop-color="#F1F1F1" offset="100%"></stop>
        </linearGradient>
    </defs>
    <g id="dom" stroke="none" stroke-width="1" fill="none" fill-rule="evenodd">
        <g id="metric-offset-width-height.svg">
            <path d="M420,130 L420,420 L30,420 L30,130 L420,130 Z M395,155 L55,155 L55,395 L395,395 L395,155 Z" id="Rectangle-2" fill-opacity="0.88" fill="#E8C48F"></path>
            <path d="M76,177 L76,376 L359,376 L359,177 L76,177 Z" id="Rectangle-1" stroke="#EE6B47" stroke-width="2"></path>
            <g id="Scrollbar" transform="translate(379.000000, 155.000000)">
                <rect id="Rectangle-19" stroke="#E9E9E9" fill="#F3F2F2" x="0.5" y="0.5" width="15" height="239" rx="3"></rect>
                <g id="Rectangle-18-+-Triangle-1">
                    <rect id="Rectangle-18" stroke="#CFCFCF" fill="url(#linearGradient-1)" x="0.5" y="0.5" width="15" height="19" rx="3"></rect>
                    <polygon id="Triangle-1" fill="#92979F" points="8 7 11.2 13 4.8 13"></polygon>
                </g>
                <g id="Rectangle-18-+-Triangle-2" transform="translate(8.000000, 230.000000) scale(1, -1) translate(-8.000000, -230.000000) translate(0.000000, 220.000000)">
                    <rect id="Rectangle-18" stroke="#CFCFCF" fill="url(#linearGradient-1)" x="0.5" y="0.5" width="15" height="19" rx="3"></rect>
                    <polygon id="Triangle-1" fill="#92979F" points="8 7 11.2 13 4.8 13"></polygon>
                </g>
                <g id="Rectangle-18-+-Triangle-3-+-Group" transform="translate(0.000000, 50.000000)">
                    <g id="Rectangle-18-+-Triangle-3" transform="translate(8.000000, 25.500000) scale(1, -1) translate(-8.000000, -25.500000) " fill="url(#linearGradient-2)" stroke="#CFCFCF">
                        <rect id="Rectangle-18" x="0.5" y="0.5" width="15" height="50" rx="3"></rect>
                    </g>
                    <g id="Group" transform="translate(4.000000, 20.000000)" fill="#D8D8D8" stroke="#979797">
                        <rect id="Rectangle-22" x="0.5" y="0.5" width="7" height="1"></rect>
                        <rect id="Rectangle-23" x="0.5" y="3.5" width="7" height="1"></rect>
                        <rect id="Rectangle-24" x="0.5" y="6.5" width="7" height="1"></rect>
                        <rect id="Rectangle-25" x="0.5" y="9.5" width="7" height="1"></rect>
                    </g>
                </g>
            </g>
            <text id="border" font-family="PTMono-Regular, PT Mono" font-size="12" font-weight="normal">
                <tspan x="21.9" y="75" fill="#EE6B47">border</tspan>
                <tspan x="29.1" y="89" fill="#3B86C4">25px</tspan>
            </text>
            <text id="padding" font-family="PTMono-Regular, PT Mono" font-size="12" font-weight="normal">
                <tspan x="41.3" y="45" fill="#EE6B47">padding</tspan>
                <tspan x="52.1" y="59" fill="#3B86C4">20px</tspan>
            </text>
            <text id="content-width:284px" font-family="PTMono-Regular, PT Mono" font-size="12" font-weight="normal">
                <tspan x="148.1" y="109" fill="#EE6B47">content width:</tspan>
                <tspan x="248.9" y="109" fill="#3B86C4">284px</tspan>
            </text>
            <text id="height:200px" transform="translate(429.500000, 274.000000) rotate(-90.000000) translate(-429.500000, -274.000000) " font-family="PTMono-Regular, PT Mono" font-size="12" font-weight="normal">
                <tspan x="386.3" y="278" fill="#EE6B47">height:</tspan>
                <tspan x="436.7" y="278" fill="#3B86C4">200px</tspan>
            </text>
            <line x1="360.5" y1="175" x2="448.64193" y2="175" id="Line" stroke="#EE6B47" stroke-width="2" stroke-linecap="square" stroke-dasharray="3,6"></line>
            <line x1="360.5" y1="377" x2="448.64193" y2="377" id="Line-2" stroke="#EE6B47" stroke-width="2" stroke-linecap="square" stroke-dasharray="3,6"></line>
            <path id="Line" d="M442,177.5 L449,191.5 L443,191.5 L443,360 L449,360 L442,374 L435,360 L441,360 L441,191.5 L435,191.5 L442,177.5 Z" fill="#EE6B47" fill-rule="nonzero"></path>
            <path id="Line-15" d="M345.5,110 L359.5,117 L345.5,124 L345.5,118 L91.679,118 L91.6799927,124 L77.6799927,117 L91.6799927,110 L91.679,116 L345.5,116 L345.5,110 Z" fill="#EE6B47" fill-rule="nonzero"></path>
            <line x1="8.53515625" y1="114.945312" x2="51.5351562" y2="114.945312" id="Line-14" stroke="#EE6B47" stroke-width="2" stroke-linecap="square" stroke-dasharray="3,6" transform="translate(30.480469, 114.945312) rotate(-270.000000) translate(-30.480469, -114.945312) "></line>
            <line x1="35.5351562" y1="113.945312" x2="76.5351562" y2="113.945312" id="Line-13" stroke="#EE6B47" stroke-width="2" stroke-linecap="square" stroke-dasharray="3,6" transform="translate(56.480469, 113.945312) rotate(-270.000000) translate(-56.480469, -113.945312) "></line>
            <text id="border-2" font-family="PTMono-Regular, PT Mono" font-size="12" font-weight="normal">
                <tspan x="385.9" y="76" fill="#EE6B47">border</tspan>
                <tspan x="393.1" y="90" fill="#3B86C4">25px</tspan>
            </text>
            <text id="padding-2" font-family="PTMono-Regular, PT Mono" font-size="12" font-weight="normal">
                <tspan x="348.3" y="16" fill="#EE6B47">padding</tspan>
                <tspan x="359.1" y="30" fill="#3B86C4">20px</tspan>
            </text>
            <text id="scrollbar" font-family="PTMono-Regular, PT Mono" font-size="12" font-weight="normal">
                <tspan x="358.1" y="48" fill="#EE6B47">scrollbar</tspan>
                <tspan x="376.1" y="62" fill="#3B86C4">16px</tspan>
            </text>
            <line x1="358.535156" y1="114.945312" x2="401.535156" y2="114.945312" id="Line-17" stroke="#EE6B47" stroke-width="2" stroke-linecap="square" stroke-dasharray="3,6" transform="translate(380.480469, 114.945312) rotate(-270.000000) translate(-380.480469, -114.945312) "></line>
            <line x1="372.535156" y1="114.945312" x2="415.535156" y2="114.945312" id="Line-20" stroke="#EE6B47" stroke-width="2" stroke-linecap="square" stroke-dasharray="3,6" transform="translate(394.480469, 114.945312) rotate(-270.000000) translate(-394.480469, -114.945312) "></line>
            <line x1="398.535156" y1="113.945312" x2="439.535156" y2="113.945312" id="Line-18" stroke="#EE6B47" stroke-width="2" stroke-linecap="square" stroke-dasharray="3,6" transform="translate(419.480469, 113.945312) rotate(-270.000000) translate(-419.480469, -113.945312) "></line>
            <line x1="54.5351562" y1="113.945312" x2="95.5351562" y2="113.945312" id="Line-16" stroke="#EE6B47" stroke-width="2" stroke-linecap="square" stroke-dasharray="3,6" transform="translate(75.480469, 113.945312) rotate(-270.000000) translate(-75.480469, -113.945312) "></line>
            <line x1="341.535156" y1="113.945312" x2="382.535156" y2="113.945312" id="Line-19" stroke="#EE6B47" stroke-width="2" stroke-linecap="square" stroke-dasharray="3,6" transform="translate(362.480469, 113.945312) rotate(-270.000000) translate(-362.480469, -113.945312) "></line>
            <text id="offsetWidth-=-25+20+" font-family="PTMono-Regular, PT Mono" font-size="14" font-weight="normal">
                <tspan x="56.5" y="484" fill="#EE6B47">offsetWidth = </tspan>
                <tspan x="174.1" y="484" fill="#3B86C4">25+20+284+20+16+25 </tspan>
                <tspan x="333.7" y="484" fill="#F38158">=</tspan>
                <tspan x="342.1" y="484" fill="#3B86C4"> 390px</tspan>
            </text>
            <line x1="30.5" y1="419" x2="30.5" y2="497" id="Line-24" stroke="#EE6B47" stroke-width="2" stroke-linecap="square" stroke-dasharray="3,6"></line>
            <line x1="419.5" y1="419" x2="419.5" y2="499" id="Line-25" stroke="#EE6B47" stroke-width="2" stroke-linecap="square" stroke-dasharray="3,6"></line>
            <path id="Line-22" d="M403,456.070965 L417,463.070965 L403,470.070965 L403,464.07 L47.089,464.07 L47.0899963,470.070965 L33.0899963,463.070965 L47.0899963,456.070965 L47.089,462.07 L403,462.07 L403,456.070965 Z" fill="#EE6B47" fill-rule="nonzero"></path>
            <text id="offsetHeight:290px" transform="translate(483.500000, 280.500000) rotate(-90.000000) translate(-483.500000, -280.500000) " font-family="PTMono-Regular, PT Mono" font-size="14" font-weight="normal">
                <tspan x="407.9" y="285" fill="#EE6B47">offsetHeight:</tspan>
                <tspan x="517.1" y="285" fill="#3B86C4">290px</tspan>
            </text>
            <line x1="417.5" y1="131" x2="505.64193" y2="131" id="Line-27" stroke="#EE6B47" stroke-width="2" stroke-linecap="square" stroke-dasharray="3,6"></line>
            <line x1="417.5" y1="420" x2="505.64193" y2="420" id="Line-28" stroke="#EE6B47" stroke-width="2" stroke-linecap="square" stroke-dasharray="3,6"></line>
            <path id="Line-26" d="M469,132.589996 L476,146.589996 L470,146.589 L470,405.41 L476,405.410004 L469,419.410004 L462,405.410004 L468,405.41 L468,146.589 L462,146.589996 L469,132.589996 Z" fill="#EE6B47" fill-rule="nonzero"></path>
            <text id="Introduction" font-family="OpenSans-Bold, Open Sans" font-size="16" font-weight="bold" fill="#5A4739">
                <tspan x="79" y="193">Introduction</tspan>
                <tspan x="179.726562" y="193" font-family="Helvetica" font-size="14" font-weight="normal"></tspan>
                <tspan x="79" y="221" font-family="Helvetica" font-size="14" font-weight="normal">This Ecma Standard is based on several </tspan>
                <tspan x="79" y="238" font-family="Helvetica" font-size="14" font-weight="normal">originating technologies, the most well </tspan>
                <tspan x="79" y="255" font-family="Helvetica" font-size="14" font-weight="normal">known being JavaScript (Netscape) and </tspan>
                <tspan x="79" y="272" font-family="Helvetica" font-size="14" font-weight="normal">JScript (Microsoft). The language was </tspan>
                <tspan x="79" y="289" font-family="Helvetica" font-size="14" font-weight="normal">invented by Brendan Eich at Netscape and </tspan>
                <tspan x="79" y="306" font-family="Helvetica" font-size="14" font-weight="normal">first appeared in that company’s Navigator </tspan>
                <tspan x="79" y="323" font-family="Helvetica" font-size="14" font-weight="normal">2.0 browser. It has appeared in all </tspan>
                <tspan x="79" y="340" font-family="Helvetica" font-size="14" font-weight="normal">subsequent browsers from Netscape and in </tspan>
                <tspan x="79" y="357" font-family="Helvetica" font-size="14" font-weight="normal">all browsers from Microsoft starting with </tspan>
            </text>
        </g>
    </g>
</svg>

<svg xmlns="http://www.w3.org/2000/svg" width="508" height="509" viewBox="0 0 508 509"><defs><style>@import url(https://fonts.googleapis.com/css?family=Open+Sans:bold,italic,bolditalic%7CPT+Mono);@font-face{font-family:&apos;PT Mono&apos;;font-weight:700;font-style:normal;src:local(&apos;PT MonoBold&apos;),url(/font/PTMonoBold.woff2) format(&apos;woff2&apos;),url(/font/PTMonoBold.woff) format(&apos;woff&apos;),url(/font/PTMonoBold.ttf) format(&apos;truetype&apos;)}</style></defs><defs><linearGradient id="linearGradient-1" x1="50%" x2="50%" y1="0%" y2="100%"><stop offset="0%" stop-color="#FFF"/><stop offset="100%" stop-color="#D1CFCD"/></linearGradient><linearGradient id="linearGradient-2" x1="50%" x2="50%" y1="0%" y2="100%"><stop offset="0%" stop-color="#FFF"/><stop offset="100%" stop-color="#D1CFCD"/></linearGradient></defs><g id="dom" fill="none" fill-rule="evenodd" stroke="none" stroke-width="1"><g id="metric-offset-width-height.svg"><path id="Rectangle-2" fill="#DBAF88" d="M420 130v290H30V130h390zm-25 25H55v240h340V155z"/><path id="Rectangle-1" stroke="#C06334" stroke-width="2" d="M359 177v199H76V177h283z"/><g id="Group" transform="translate(379 155)"><rect id="Rectangle-19" width="15" height="239" x=".5" y=".5" fill="#D1CFCD" stroke="#D1CFCD" rx="3"/><g id="Rectangle-18-+-Triangle-1"><rect id="Rectangle-18" width="15" height="19" x=".5" y=".5" fill="url(#linearGradient-1)" stroke="#D1CFCD" rx="3"/><path id="Triangle-1" fill="#7E7C7B" d="M8 7l3.2 6H4.8z"/></g><g id="Rectangle-18-+-Triangle-2" transform="matrix(1 0 0 -1 0 240)"><rect id="Rectangle-18" width="15" height="19" x=".5" y=".5" fill="url(#linearGradient-1)" stroke="#D1CFCD" rx="3"/><path id="Triangle-1" fill="#7E7C7B" d="M8 7l3.2 6H4.8z"/></g><g id="Rectangle-18-+-Triangle-3-+-Group" transform="translate(0 50)"><g id="Rectangle-18-+-Triangle-3" fill="url(#linearGradient-2)" stroke="#D1CFCD" transform="matrix(1 0 0 -1 0 51)"><rect id="Rectangle-18" width="15" height="50" x=".5" y=".5" rx="3"/></g><g id="Group" fill="#D1CFCD" stroke="#7E7C7B" transform="translate(4 20)"><path id="Rectangle-22" d="M.5.5h7v1h-7z"/><path id="Rectangle-23" d="M.5 3.5h7v1h-7z"/><path id="Rectangle-24" d="M.5 6.5h7v1h-7z"/><path id="Rectangle-25" d="M.5 9.5h7v1h-7z"/></g></g></g><text id="border" font-family="PTMono-Regular, PT Mono" font-size="12" font-weight="normal"><tspan x="21.9" y="75" fill="#C06334">border</tspan> <tspan x="29.1" y="89" fill="#1C85B5">25px</tspan></text><text id="padding" font-family="PTMono-Regular, PT Mono" font-size="12" font-weight="normal"><tspan x="41.3" y="45" fill="#C06334">padding</tspan> <tspan x="52.1" y="59" fill="#1C85B5">20px</tspan></text><text id="content-width:284px" font-family="PTMono-Regular, PT Mono" font-size="12" font-weight="normal"><tspan x="148.1" y="109" fill="#C06334">content width:</tspan> <tspan x="248.9" y="109" fill="#1C85B5">284px</tspan></text><text id="height:200px" font-family="PTMono-Regular, PT Mono" font-size="12" font-weight="normal" transform="rotate(-90 429.5 274)"><tspan x="386.3" y="278" fill="#C06334">height:</tspan> <tspan x="436.7" y="278" fill="#1C85B5">200px</tspan></text><path id="Line" stroke="#C06334" stroke-dasharray="3,6" stroke-linecap="square" stroke-width="2" d="M360.5 175h88.142"/><path id="Line-2" stroke="#C06334" stroke-dasharray="3,6" stroke-linecap="square" stroke-width="2" d="M360.5 377h88.142"/><path id="Line" fill="#C06334" fill-rule="nonzero" d="M442 177.5l7 14h-6V360h6l-7 14-7-14h6V191.5h-6l7-14z"/><path id="Line-15" fill="#C06334" fill-rule="nonzero" d="M345.5 110l14 7-14 7v-6H91.679l.001 6-14-7 14-7-.001 6H345.5v-6z"/><path id="Line-14" stroke="#C06334" stroke-dasharray="3,6" stroke-linecap="square" stroke-width="2" d="M30.48 93v43"/><path id="Line-13" stroke="#C06334" stroke-dasharray="3,6" stroke-linecap="square" stroke-width="2" d="M56.48 93v41"/><text id="border-2" font-family="PTMono-Regular, PT Mono" font-size="12" font-weight="normal"><tspan x="385.9" y="76" fill="#C06334">border</tspan> <tspan x="393.1" y="90" fill="#1C85B5">25px</tspan></text><text id="padding-2" font-family="PTMono-Regular, PT Mono" font-size="12" font-weight="normal"><tspan x="348.3" y="16" fill="#C06334">padding</tspan> <tspan x="359.1" y="30" fill="#1C85B5">20px</tspan></text><text id="scrollbar" font-family="PTMono-Regular, PT Mono" font-size="12" font-weight="normal"><tspan x="358.1" y="48" fill="#C06334">scrollbar</tspan> <tspan x="376.1" y="62" fill="#1C85B5">16px</tspan></text><path id="Line-17" stroke="#C06334" stroke-dasharray="3,6" stroke-linecap="square" stroke-width="2" d="M380.48 93v43"/><path id="Line-20" stroke="#C06334" stroke-dasharray="3,6" stroke-linecap="square" stroke-width="2" d="M394.48 93v43"/><path id="Line-18" stroke="#C06334" stroke-dasharray="3,6" stroke-linecap="square" stroke-width="2" d="M419.48 93v41"/><path id="Line-16" stroke="#C06334" stroke-dasharray="3,6" stroke-linecap="square" stroke-width="2" d="M75.48 93v41"/><path id="Line-19" stroke="#C06334" stroke-dasharray="3,6" stroke-linecap="square" stroke-width="2" d="M362.48 93v41"/><text id="offsetWidth-=-25+20+" font-family="PTMono-Regular, PT Mono" font-size="14" font-weight="normal"><tspan x="56.5" y="484" fill="#C06334">offsetWidth = </tspan> <tspan x="174.1" y="484" fill="#1C85B5">25+20+284+20+16+25 </tspan> <tspan x="333.7" y="484" fill="#C06334">=</tspan> <tspan x="342.1" y="484" fill="#1C85B5"> 390px</tspan></text><path id="Line-24" stroke="#C06334" stroke-dasharray="3,6" stroke-linecap="square" stroke-width="2" d="M30.5 419v78"/><path id="Line-25" stroke="#C06334" stroke-dasharray="3,6" stroke-linecap="square" stroke-width="2" d="M419.5 419v80"/><path id="Line-22" fill="#C06334" fill-rule="nonzero" d="M403 456.071l14 7-14 7v-6.001H47.089l.001 6.001-14-7 14-7-.001 5.999H403v-5.999z"/><text id="offsetHeight:290px" font-family="PTMono-Regular, PT Mono" font-size="14" font-weight="normal" transform="rotate(-90 483.5 280.5)"><tspan x="407.9" y="285" fill="#C06334">offsetHeight:</tspan> <tspan x="517.1" y="285" fill="#1C85B5">290px</tspan></text><path id="Line-27" stroke="#C06334" stroke-dasharray="3,6" stroke-linecap="square" stroke-width="2" d="M417.5 131h88.142"/><path id="Line-28" stroke="#C06334" stroke-dasharray="3,6" stroke-linecap="square" stroke-width="2" d="M417.5 420h88.142"/><path id="Line-26" fill="#C06334" fill-rule="nonzero" d="M469 132.59l7 14-6-.001V405.41h6l-7 14-7-14h6V146.589l-6 .001 7-14z"/><text id="Introduction" fill="#643B0C" font-family="OpenSans-Bold, Open Sans" font-size="16" font-weight="bold"><tspan x="79" y="193">Introduction</tspan>  <tspan x="79" y="221" font-family="OpenSans-Regular, Open Sans" font-size="14" font-weight="normal">This Ecma Standard is based on several </tspan> <tspan x="79" y="240" font-family="OpenSans-Regular, Open Sans" font-size="14" font-weight="normal">originating technologies, the most well </tspan> <tspan x="79" y="259" font-family="OpenSans-Regular, Open Sans" font-size="14" font-weight="normal">known being JavaScript (Netscape) and </tspan> <tspan x="79" y="278" font-family="OpenSans-Regular, Open Sans" font-size="14" font-weight="normal">JScript (Microsoft). The language was </tspan> <tspan x="79" y="297" font-family="OpenSans-Regular, Open Sans" font-size="14" font-weight="normal">invented by Brendan Eich at Netscape and </tspan> <tspan x="79" y="316" font-family="OpenSans-Regular, Open Sans" font-size="14" font-weight="normal">first appeared in that company’s Navigator </tspan> <tspan x="79" y="335" font-family="OpenSans-Regular, Open Sans" font-size="14" font-weight="normal">2.0 browser. It has appeared in all </tspan> <tspan x="79" y="354" font-family="OpenSans-Regular, Open Sans" font-size="14" font-weight="normal">subsequent browsers from Netscape and </tspan> <tspan x="79" y="373" font-family="OpenSans-Regular, Open Sans" font-size="14" font-weight="normal">in all browsers from Microsoft starting </tspan> <tspan x="79" y="392" font-family="OpenSans-Regular, Open Sans" font-size="14" font-weight="normal">with </tspan></text></g></g></svg>
